icons/Zeppelin_filled.svg

<svg width="24" height="24" viewBox="0 0 24 24" fill="none" xmlns="http://www.w3.org/2000/svg">
<path fill-rule="evenodd" clip-rule="evenodd" d="M3.29882,3.9431c0.51233,-0.17079 1.07481,-0.09547 1.52416,0.20409l2.47206,1.64804c2.5027,-0.93986 5.38896,-1.5482 7.70496,-1.5482c4.3116,0 7.75,2.92638 7.75,6.75007c0,2.8451 -1.9037,5.1934 -4.6544,6.209l-1.989,2.735c-0.1412,0.194 -0.3666,0.3089 -0.6066,0.3089h-6c-0.41421,0 -0.75,-0.3358 -0.75,-0.75v-2.8052c-0.49247,-0.1516 -0.97772,-0.3169 -1.44939,-0.4939l-2.88458,1.9231c-0.19258,0.1284 -0.43363,0.1607 -0.6532,0.0875l-1.5,-0.5c-0.38088,-0.127 -0.59423,-0.5314 -0.48402,-0.9174l0.90288,-3.1628c-0.80544,-0.7244 -1.43169,-1.6155 -1.43169,-2.6342c0,-1.01871 0.62619,-1.90984 1.43158,-2.63416l-0.90268,-3.15678c-0.11041,-0.38612 0.10292,-0.7907 0.48391,-0.9177zM10.25,17.1086v1.6414h4.8681l0.7591,-1.0439c-0.2877,0.0271 -0.5804,0.041 -0.8772,0.041c-1.4394,0 -3.0991,-0.235 -4.75,-0.6385z" fill="#002B51"/>
</svg>

<svg width="24" height="24" viewBox="0 0 24 24" fill="none" xmlns="http://www.w3.org/2000/svg">
<path fill-rule="evenodd" clip-rule="evenodd" d="M3.29882 3.9431C3.81115 3.77231 4.37363 3.84763 4.82298 4.14719L7.29504 5.79523C9.79774 4.85537 12.684 4.24703 15 4.24703C19.3116 4.24703 22.75 7.17341 22.75 10.9971C22.75 13.8422 20.8463 16.1905 18.0956 17.2061L16.1066 19.9411C15.9654 20.1351 15.74 20.25 15.5 20.25H9.5C9.08579 20.25 8.75 19.9142 8.75 19.5V16.6948C8.25753 16.5432 7.77228 16.3779 7.30061 16.2009L4.41603 18.124C4.22345 18.2524 3.9824 18.2847 3.76283 18.2115L2.26283 17.7115C1.88195 17.5845 1.6686 17.1801 1.77881 16.7941L2.68169 13.6313C1.87625 12.9069 1.25 12.0158 1.25 10.9971C1.25 9.97839 1.87619 9.08726 2.68158 8.36294L1.7789 5.20616C1.66849 4.82004 1.88182 4.41546 2.26281 4.28846L3.29882 3.9431ZM15 17.7471C15.2968 17.7471 15.5895 17.7332 15.8772 17.7061L15.1181 18.75H10.25V17.1086C11.9009 17.5121 13.5606 17.7471 15 17.7471Z" fill="#002B51"/>
</svg>
